X: 389
T: A Mother's Lamentation
M:3/4
L:1/8
B:O'Neill's 389
N:"Slow."
N:H is a fermata.
N:Each part is 9 bars.
Z:Transcribed by Chris Falt, cfalt@trytel.com
K:D
(D>F) (A2 B>A)|Ad F2 E>E|(DF A2) (B>c)|d4 (f>d)|
(A2 d2) (d>c)|(B3c) (B>A)|(AFAB) Hd>B|A>F E>D EE|DD D4||
(FD) (FA) B2|(A>F) d2 (A>F)|(E>D FA) d>d|e4 (fd|
e4) (f>d)|e2 c2 d>B|(AFAB) Hd>d|B>A FD E>F|DD D4||


